X:31
T:Coppers and Brass
T:Hartigan's Fancy
R:jig
H:Related to The Humours of Ennistymon, #142 and The Queen of the Rushes, #6.
H:Derived from "Greensleeves"
D:Johnny Doran
Z:id:hn-jig-31
M:6/8
K:G
BGB BGB|AFA AFA|~B3 BAB|GBd gdc|BGB BGB|~A3 ABc|ded cAF|1 AGF G2A:|2 AGF G2e||
|:~f3 fed|cAG FGA|Ggg gfg|afd d2e|~f3 fed|cAG FGA|~B3 cAF|1 AGF G2e:|2 AGF G2A||
<end>
<start>
